X:471
T: Es fahrt ein Schfer in jenem Tal (5-67), S. 109
N: P0741
O: Lothringen
S: MERKELBACH-PINCK, Angelika: Verklingende Weisen, Bd 5, Kassel 1962]
N: bei Thill: "Schfer und Edelmann"
N: s. Sign. 0109-0112, (7a-7d), S.
R: ???, Standesunterschied]
M: 4/4
L: 1/16
K: F
G4 | c3c4zB2A2G2A2 | B4c4G8 |
F2G2A4c2d2c4 | B4A4G4
G4 | c4c4B2A2G2A2 | B4c4G8 |
F2E2D4C8 | G4A2B2c6d2 |
c4A4B2G2F4 | G2A2E4F4

@@@ Tune index: 8021
